src/images/footer-teleg.svg

<svg width="30" height="30" viewBox="0 0 30 30" fill="none" xmlns="http://www.w3.org/2000/svg">
<path d="M14.9707 29.7195C22.9788 29.7195 29.4707 23.2276 29.4707 15.2195C29.4707 7.21135 22.9788 0.719482 14.9707 0.719482C6.96257 0.719482 0.470703 7.21135 0.470703 15.2195C0.470703 23.2276 6.96257 29.7195 14.9707 29.7195Z" fill="#014C69"/>
<path d="M12.3122 21.8653C11.8425 21.8653 11.9223 21.6879 11.7603 21.2406L10.3789 16.6943L21.0122 10.3861" fill="#C8DAEA"/>
<path d="M12.3125 21.8654C12.675 21.8654 12.8352 21.6996 13.0375 21.5029L14.9708 19.6229L12.5592 18.1687" fill="#A9C9DD"/>
<path d="M12.558 18.169L18.4015 22.4863C19.0683 22.8542 19.5496 22.6637 19.7157 21.8672L22.0943 10.6583C22.3378 9.68199 21.7221 9.23916 21.0842 9.52877L7.11708 14.9144C6.16369 15.2968 6.16925 15.8287 6.94329 16.0657L10.5276 17.1844L18.8256 11.9493C19.2173 11.7118 19.5768 11.8395 19.2817 12.1014" fill="url(#paint0_linear_215_786)"/>
<defs>
<linearGradient id="paint0_linear_215_786" x1="13.1547" y1="16.1102" x2="14.704" y2="21.1217" gradientUnits="userSpaceOnUse">
<stop stop-color="#EFF7FC"/>
<stop offset="1" stop-color="white"/>
</linearGradient>
</defs>
</svg>

<svg xmlns="http://www.w3.org/2000/svg" width="30" height="30" fill="none"><path fill="#014C69" d="M14.97 29.72c8.009 0 14.5-6.492 14.5-14.5 0-8.009-6.491-14.5-14.5-14.5C6.964.72.47 7.21.47 15.22c0 8.008 6.493 14.5 14.5 14.5Z"/><path fill="#C8DAEA" d="M12.312 21.865c-.47 0-.39-.177-.552-.624l-1.381-4.547 10.633-6.308"/><path fill="#A9C9DD" d="M12.313 21.865c.362 0 .522-.165.724-.362l1.934-1.88-2.412-1.454"/><path fill="url(#a)" d="m12.558 18.169 5.843 4.317c.667.368 1.149.178 1.315-.619l2.378-11.209c.244-.976-.372-1.419-1.01-1.13L7.117 14.915c-.953.383-.948.915-.174 1.152l3.585 1.118 8.298-5.235c.391-.237.75-.11.456.152"/><defs><linearGradient id="a" x1="13.155" x2="14.704" y1="16.11" y2="21.122" gradientUnits="userSpaceOnUse"><stop stop-color="#EFF7FC"/><stop offset="1" stop-color="#fff"/></linearGradient></defs></svg>
